X:1
T:Mrs. Moray of Abercairnie [3]
L:1/8
M:4/4
I:linebreak $
K:Gmin
V:1 treble 
V:1
 D | G<G B>G d<GB<g | F>FA>F c<FA<f | G<G B>G d<GB<g | f>dc>A B<G G :| d |$ g<bd<b c<aB<g | %7
 A>fc>f A<F F>A | g<bd<b c<aG<g | A>gd>g B<G G>d |$ g<b d>b c<aB<g | A>fc>f A<F F>A | %12
 G<G B>G d<GB>g | f>d c<A BGG || %14
